packages/ffe-icons/icons/filled/md/multicooker.svg

<svg xmlns="http://www.w3.org/2000/svg" height="24" viewBox="0 -960 960 960" width="24"><path d="M330.001-749.999v-37.692q0-29.827 21.24-51.067 21.24-21.241 51.067-21.241h155.384q29.827 0 51.067 21.241 21.24 21.24 21.24 51.067v37.692h117.692q29.827 0 51.067 21.24 21.241 21.24 21.241 51.067v57.693H140.001v-57.693q0-29.827 21.241-51.067 21.24-21.24 51.067-21.24h117.692ZM212.309-140.001q-29.827 0-51.067-21.241-21.241-21.24-21.241-51.067V-560h150v69.999q0 29.827 21.24 51.067t51.067 21.24h235.384q29.827 0 51.067-21.24t21.24-51.067V-560h150v347.691q0 29.827-21.241 51.067-21.24 21.241-51.067 21.241H212.309ZM320-252.309q14.692 0 25.038-10.346t10.346-25.038q0-14.692-10.346-25.038T320-323.077q-14.692 0-25.038 10.346t-10.346 25.038q0 14.692 10.346 25.038T320-252.309Zm160 0q14.692 0 25.038-10.346t10.346-25.038q0-14.692-10.346-25.038T480-323.077q-14.692 0-25.038 10.346t-10.346 25.038q0 14.692 10.346 25.038T480-252.309Zm160 0q14.692 0 25.038-10.346t10.346-25.038q0-14.692-10.346-25.038T640-323.077q-14.692 0-25.038 10.346t-10.346 25.038q0 14.692 10.346 25.038T640-252.309ZM362.308-477.692q-5.385 0-8.847-3.462-3.462-3.462-3.462-8.847V-560h260.002v69.999q0 5.385-3.462 8.847-3.462 3.462-8.847 3.462H362.308Zm27.691-272.307h180.002v-37.692q0-5.385-3.462-8.847-3.462-3.462-8.847-3.462H402.308q-5.385 0-8.847 3.462-3.462 3.462-3.462 8.847v37.692Z"/></svg>

<svg xmlns="http://www.w3.org/2000/svg" height="24" viewBox="0 -960 960 960" width="24"><path d="M330-750v-37.69q0-29.83 21.24-51.07Q372.48-860 402.31-860h155.38q29.83 0 51.07 21.24Q630-817.52 630-787.69V-750h117.69q29.83 0 51.07 21.24Q820-707.52 820-677.69V-620H140v-57.69q0-29.83 21.24-51.07Q182.48-750 212.31-750H330ZM212.31-140q-29.83 0-51.07-21.24Q140-182.48 140-212.31V-560h150v70q0 29.83 21.24 51.07 21.24 21.24 51.07 21.24h235.38q29.83 0 51.07-21.24Q670-460.17 670-490v-70h150v347.69q0 29.83-21.24 51.07Q777.52-140 747.69-140H212.31ZM320-252.31q14.69 0 25.04-10.34 10.34-10.35 10.34-25.04 0-14.7-10.34-25.04-10.35-10.35-25.04-10.35t-25.04 10.35q-10.34 10.34-10.34 25.04 0 14.69 10.34 25.04 10.35 10.34 25.04 10.34Zm160 0q14.69 0 25.04-10.34 10.34-10.35 10.34-25.04 0-14.7-10.34-25.04-10.35-10.35-25.04-10.35t-25.04 10.35q-10.34 10.34-10.34 25.04 0 14.69 10.34 25.04 10.35 10.34 25.04 10.34Zm160 0q14.69 0 25.04-10.34 10.34-10.35 10.34-25.04 0-14.7-10.34-25.04-10.35-10.35-25.04-10.35t-25.04 10.35q-10.34 10.34-10.34 25.04 0 14.69 10.34 25.04 10.35 10.34 25.04 10.34ZM362.31-477.69q-5.39 0-8.85-3.46Q350-484.62 350-490v-70h260v70q0 5.38-3.46 8.85-3.46 3.46-8.85 3.46H362.31ZM390-750h180v-37.69q0-5.39-3.46-8.85t-8.85-3.46H402.31q-5.39 0-8.85 3.46t-3.46 8.85V-750Z"/></svg>
